X: 1751
T: Sevdiceğim Âşıkını Ağlatır
C: Dede Efendi
O: Turkey
F: http://compmusic.upf.edu/node/140
N: muhayyer--sarki--yuruksemai_ii--sevdicegim_asikini--dede_efendi
N: makam= muhayyer
N: form= sarki
N: usul= yuruksemai_ii = 6/8
M: 6/8
L: 1/16
K: C _2/4B ^3/4f  
Q: 1/4=132
%%MIDI tuningsystem comma53
a4 c'2b2 a4  | a4 c'2b2 a4  | a4 agg4=f2  | \
w:  Sev di ce ğim   |  â şı kı nı   |  ağ la *  tır   | 
_7/8a4 agg2 {b}ag=fe  | 
w:  ağ la *  tır  *  *  *  a  | 
=f4 c2de f4  | g4 a2a2 a4  | g2g3=ff2 f3_2/4e  | \
w:  man   SAZ  |  Göz ya şı nı   |  su lar  *  gi bi   | 
_2/4e4 edd4c2  | d4 d2g^f _7/8edcB  | 
w:  çağ la *  tır   |  çağ la tır  *  *  *  a  | 
c6^fg a4  | g2a4a2 a3_2/4e  | _2/4e4 edd2 _7/8edc2  | \
w:  man   SAZ  |  Su lar  gi bi   |  çağ la *  tır   | 
_7/8e4 d2d2 {^f}edc2  | 
w:  SAZ  | 
c4 c2cB B2BA  | A6^fg a4  | a4 c'2b2 a4  | \
w:  çağ la tır   |  vay   SAZ  |  Sev di ce ğim   | 
a4 c'2b2 a4  | a4 agg4=f2  | 
w:  â şı kı nı   |  ağ la *  tır   | 
_7/8a4 agg2 {b}ag=fe  | =f4 c2de f4  | \
w:  ağ la *  tır  *  *  *  a  |  man   SAZ  | 
g4 a2a2 a4  | g2g3=ff2 f3_2/4e  | 
w:  Göz ya şı nı   |  su lar  *  gi bi   | 
_2/4e4 edd4c2  | d4 d2g^f _7/8edcB  | \
w:  çağ la *  tır   |  çağ la tır  *  *  *  a  | 
c6^fg a4  | g2a4a2 a3_2/4e  | 
w:  man   SAZ  |  Su lar  gi bi   | 
_2/4e4 edd2 _7/8edc2  | _7/8e4 d2d2 {^f}edc2  | \
w:  çağ la *  tır   |  SAZ  | 
c4 c2cB B2BA  | A6ab c'4  | 
w:  çağ la tır   |  vay   SAZ  | 
c'2c'4c'2 c'4  | c'4 _3/4d'2d'c' c'3b  | \
w:  Fe lek  ba na   |  ka re le *  ri   | 
a4 b2c'4b2  | a4 b2c'4_3/4d'2  | _3/4d'c'c'4(3c'ba b2z2  | 
w:  bağ la tır   |  bağ la tır   |   | 
_1/4d'c'c'3bba a4  | _1/4d'c'c'3bba a4  | \
w:  A *  man  *  fe *  lek   |  SAZ  | 
d2d4^fg a2{c'}ba  | 
w:  ya man  fe *  lek   | 
a8-a2z2  | a2b2 ag^fg a4  | g4 a2a2 a4  | \
w:  vay    |  SAZ  |  Yâ re li yim   | 
a3g g=ffe _1/4e3d  | 
w:  yâ *  re *  li *  yim   | 
_1/4e4 edd4c2  | d4 d2g^f _7/8edcB  | \
w:  yâr  *  *  yâr   |  yal va rı *  rım   | 
c6^fg a4  | g4 a2a2 a3_1/4e  | 
w:  vay   SAZ  |  Ey le  be nim   | 
_1/4e4 edd2 _7/8edc2  | _7/8e4 d2d2 edc2  | \
w:  ça re *  mi   |  SAZ  | 
c4 c2cB B2BA  | A8-A2z2  | 
w:  ça re mi   |  vay    | 
|


